X: 53
T: POLKA: Ballinafad
C: C: Trad.; S: Various
C: Set Leaders: Mars, Anton
Z: [Unedited]; gian marco at The Session
N: https://thesession.org/members/26966/sets/94260
R: Polka
M: 2/4
L: 1/8
Q: 1/4=140
K: Gmaj
B/c/B/A/ B/c/B/A/|BG G>B|AG FG|AB cd|
B/c/B/A/ B/c/B/A/|BG GA/B/|AG FE|D2 DB/c/|
d>e dB|cA A>c|BG EF|GF ED|
B/c/B/A/ B/c/B/A/|BG G>B|AG FA|G2 Gg/a/||
|:b2 b/a/g/f/|g2gd|f2 f/e/d/B/|c2cd/c/|
BG gd|cA B/c/d|1 e2 f2|g2 d/e/g/a/:|2 ec fa|g2 d>c||

